!!!!SEGMENT: pl-wnifc--6634-n--008_katski-apolinary--8-mazur-op-7.krn
!!!cenid: 18xx:4004
!!!COM: Kątski, Apolinary
!!!COM-rismID: pe30020040
!!!CDT: 1825-1879
!!!CNT: Polish
!!!OTL: 8. Mazur op. 7
!!!PDT:
!!!AGN:
!!!SMS-siglum: PL-Wnifc
!!!SMS-shelfmark: 6634/n
!!!SMS-shelfwork: 008 W
!!!SMS-variant:
!!!SMS-altvar:
!!!NIFC-rismSourceID: 1001148604
!!!NIFC-islandoraID: nifc:212915
!!!URL-pdf-islandora: https://repozytorium.nifc.pl/islandora/object/nifc%3A212915/datastream/PDF/view
!!!URL-scan: https://polish.musicsources.pl/pl/lokalizacje/galeria/druki-muzyczne/16872 @EN{Scan on Polish Music Sources Website} @PL{Skany w portalu Dziedzictwo Muzyki Polskiej w otwartym dostępie}
!!!ONB-nifc: UWAGA: str. 13-15
!!!AIN: 1 violn
!!!key: C
**kern	**fing	**dynam
*I"Violon.	*	*
*I'vl	*	*
*ICstr	*	*
*Ivioln	*	*
*>[A,A1,A,A2,B,B1,B,B2,C]	*>[A,A1,A,A2,B,B1,B,B2,C]	*>[A,A1,A,A2,B]
*>A	*>A	*>A
*clefG2	*	*
*k[]	*	*
*C:	*	*
*M3/4	*	*
=1	=1	=1
!LO:TX:b:i:t=con fuoco	!	!
!LO:TX:a:B:t=Allegro risoluto.	!	!
8.eeu\L	.	ff
16ee\Jk	.	.
4ff\	.	.
4ff#X\	.	.
=2	=2	=2
4aa\	.	.
4gg\	.	.
4r	.	.
=3	=3	=3
!LO:TX:a:t=1	!	!
2.r	.	.
=4	=4	=4
4.au/	.	>
(8g/L	.	.
8e/	.	.
8c/J)	.	]]
=5	=5	=5
8.b\L	.	ff
16b\Jk	.	.
4cc\	.	.
4cc#X\	.	.
=6	=6	=6
4ee\	4	.
4dd\	.	.
4r	.	.
=7	=7	=7
!LO:TX:a:t=1	!	!
2.r	.	.
=8	=8	=8
4.eeu\	4	>
(8dd\L	.	.
8b\	.	.
8g\J)	.	]]
!LO:LB:g=original	!	!
=9	=9	=9
8.a/L	.	f <
16a/Jk	.	.
4b/	.	.
4a/	.	.
=10	=10	=10
8.aa\L	.	.
16aa\Jk	.	.
4bb\	.	.
4aa\	.	.
=11	=11	=11
8.aa\L	.	.
16aa\Jk	.	.
4bb\	.	.
4aa\	.	[[
=12	=12	=12
4.ddd\	4	sf
8ccc^<\L	.	.
8bb^<\	.	.
8aa^<\J	.	.
=13	=13	=13
4gg\	4	.
4r	.	.
4r	.	.
=14	=14	=14
4r	.	.
4r	.	.
4ccv\	.	sf
=15	=15	=15
4b\	.	sf
4r	.	.
4r	.	.
!LO:LB:g=original	!	!
=16	=16	=16
4r	.	.
4r	.	.
4ccv\	.	sf
=17	=17	=17
4b\	.	sf
4r	.	.
4r	.	.
=18	=18	=18
!LO:TX:a:t=5	!	!
00.r	.	.
=-	=-	=-
=-	=-	=-
=-	=-	=-
=19-	=19-	=19-
2.r	.	.
=20	=20	=20
!LO:TX:b:i:t=pesante	!	!
4gu/	.	ff
8g/L	.	.
8g/J	.	.
4g/	.	.
=21	=21	=21
4g/	.	.
4b\	.	.
4dd\	.	.
=22	=22	=22
4gg\	.	.
4r	.	.
4r	.	.
=23||	=23||	=23||
!LO:TX:a:B:t=Tempo giusto.	!	!
8.eu/L	.	.
(16e/Jk	.	.
4f/)	.	.
(4f#X/	.	.
=24	=24	=24
8a/)	.	.
8r	.	.
4.g/	.	.
8ee\	0	.
!LO:LB:g=original	!	!
=25	=25	=25
(16qqee/LL	.	.
16qqff/JJ	.	.
8.ee\L)	.	p
16dd\Jk	.	.
(4.dd^\	.	.
8ee\)	4	.
=26	=26	=26
(16qqdd/LL	.	.
16qqee/JJ	4	.
8.dd\L)	.	.
16cc\Jk	.	.
2cc^\	.	.
=27	=27	=27
8.e/L	.	f
(16e/Jk	.	.
4f/)	.	.
(4f#X/	.	.
=28	=28	=28
8a/)	4	.
8r	.	.
4.g/	.	.
8ee\	0	.
=29	=29	=29
(16qqee/LL	.	.
16qqff/JJ	.	.
8.ee\L)	.	p
16dd\Jk	.	.
(4.dd\	.	.
8cc\)	.	.
=30	=30	=30
(8b\L	.	.
8dd\J	.	.
16aa\)	.	.
16r	.	.
8gg^v\L	.	.
8ff#X^\	.	.
8ffn^\J	.	.
!LO:LB:g=original	!	!
=31	=31	=31
8.ee\L	.	ff
16ee\Jk	.	.
4ff\	.	.
4ff#X\	.	.
=32	=32	=32
4aa\	.	.
4..gg\	.	.
16ee\	.	pp
=33	=33	=33
8.ee\L	.	.
16dd\Jk	.	.
4.dd^\	.	.
8ee\	4	.
=34	=34	=34
8.dd\L	.	.
16cc\Jk	.	.
2cc^\	.	.
=35	=35	=35
8.ee\L	.	ff
16ee\Jk	.	.
4ff\	.	.
4ff#X\	.	.
=36	=36	=36
4aa\	.	.
4..gg\	.	.
16ee\	.	pp
!LO:LB:g=original	!	!
=37	=37	=37
8.ee\L	.	.
16dd\Jk	.	.
4.dd\	.	.
8ee\	4	.
=38	=38	=38
4cc\	.	.
4cc\	.	sf
4r	.	.
=39||	=39||	=39||
8.cu/L	.	p
16c/Jk	.	.
(4d/	.	.
8.c/L	.	.
16B-X/Jk)	.	.
=40	=40	=40
8.A/L	.	.
(16c/Jk	.	.
4.a^>/	4	.
8f/)	.	.
=41	=41	=41
8e/L	.	.
8dd/J	.	.
8cc\L	.	.
8b-X\J	.	.
(8.d/L	.	.
16e/Jk	.	.
=42	=42	=42
2f/)	.	.
4r	.	.
!LO:LB:g=original	!	!
=43	=43	=43
8.ccu\L	.	p
16cc\Jk	.	.
(4dd\	.	.
8.cc\L	.	.
16b-X\Jk)	.	.
=44	=44	=44
8.a\L	.	.
(16cc\Jk	.	.
4.aa\	.	.
8ff\)	.	.
=45	=45	=45
8.ee\L	.	.
(16gg\Jk	.	.
*	*below	*
4.ddd\	4	.
8ccc\)	.	.
=46	=46	=46
8.bb-X\L	.	.
16aa\Jk	.	.
*	*above	*
8gg\L	2	.
8ff\	.	.
8ee\	.	.
8dd\J	.	.
=47	=47	=47
8.cc\L	.	.
16cc\Jk	.	.
(4dd\	.	.
8.cc\L	.	.
16b\Jk)	.	.
=48	=48	=48
8.a\L	.	.
(16cc\Jk	.	.
4.aa\	.	.
8ff\)	.	.
!LO:LB:g=original	!	!
=49	=49	=49
(8ee\L	.	.
8ddd\J)	4	.
8ccc\L	.	.
8bb-X\	.	.
8dd\	1	.
8ee\J	2	.
=50	=50	=50
4ff\	.	.
4ff\	.	sf
4r	.	.
=51||	=51||	=51||
8.eeu\L	.	ff
16ee\Jk	.	.
4ff\	.	.
4gg#X\	.	.
=52	=52	=52
4aa\	.	.
4..gg\	.	.
16ee\	.	pp
=53	=53	=53
8.ee\L	.	.
16dd\Jk	.	.
4.dd^\	.	.
8ee\	4	.
=54	=54	=54
8.dd\L	.	.
16cc\Jk	.	.
2cc^\	.	.
!LO:LB:g=original	!	!
=55	=55	=55
8.ee\L	.	ff
16ee\Jk	.	.
4ff\	.	.
4ff#X\	.	.
=56	=56	=56
4aa\	.	.
4.gg^\	.	.
8ee\	.	.
=57	=57	=57
8.ee\L	.	.
16dd\Jk	.	.
(4.dd^\	.	.
8cc\)	.	.
=58	=58	=58
(8b\L	.	<
8dd\J	.	.
8aa\)	.	.
8gg^\L	.	[
8ff#X^\	.	.
8ffn^\J	.	.
=59	=59	=59
8.ee\L	.	ff
16ee\Jk	.	.
4ff\	.	.
4ff#X\	.	.
!LO:LB:g=original	!	!
=60	=60	=60
4aa\	.	.
4..gg\	.	.
16ee\	.	pp
=61	=61	=61
8.ee\L	.	.
16dd\Jk	.	.
4.dd^\	.	.
8ee\	.	.
=62	=62	=62
8.dd\L	.	.
16cc\Jk	.	.
2cc^\	.	.
=63	=63	=63
8.ee\L	.	ff
16ee\Jk	.	.
4ff\	.	.
4ff#X\	.	.
=64	=64	=64
4aa\	.	.
4..gg\	.	.
16eee\	0	.
=65	=65	=65
8.eee\L	.	.
16ddd\Jk	4	.
4ddd\	.	.
4ccc\	.	.
=66	=66	=66
4.bb\	.	.
8gg\L	2	.
8ff#X\	.	.
8ee\J	.	.
!LO:PB:g=original	!	!
=67||	=67||	=67||
!LO:TX:a:i:t=animato	!	!
([4dd\	.	f
8.dd\L]	.	.
16cc\Jk)	.	.
(8.a/L	.	.
16b/Jk)	.	.
=68	=68	=68
(8.g/L	.	.
16b/Jk	.	.
4ee\)	4	.
4dd\	.	.
=69	=69	=69
(8.dd\L	.	.
16ff#X\Jk	.	.
4bb\)	.	.
4aa\	.	.
=70	=70	=70
(8.gg\L	.	.
16bb\Jk	4	.
4eee\)	0	.
4ddd\	4	.
=71	=71	=71
([4dd\	.	.
8.dd\L]	.	.
16cc\Jk)	.	.
(8.a/L	.	.
16b/Jk)	.	.
=72	=72	=72
(8.g/L	.	.
16b/Jk	.	.
4ee\)	4	.
4dd\	.	.
=73	=73	=73
4ddd\	4	.
8ccc\L	.	.
8aa\J	.	.
8ee\L	0	.
8ff#X\J	.	.
!LO:LB:g=original	!	!
=74	=74	=74
4.gg\	.	.
8gg\L	.	.
8ff#X\	.	.
8ee\J	.	.
=75	=75	=75
([4dd\	.	f
8.dd\L]	.	.
16cc\Jk)	.	.
(8.a/L	.	.
16b/Jk)	.	.
=76	=76	=76
(8.g/L	.	.
16b/Jk	.	.
4ee\)	4	.
4dd\	.	.
=77	=77	=77
(8.dd\L	.	.
16ff#X\Jk	.	.
4bb\)	.	.
4aa\	.	.
=78	=78	=78
(8.gg\L	.	.
16bb\Jk	4	.
4eee\)	0	.
4ddd\	4	.
=79	=79	=79
([4dd\	.	.
8.dd\L]	.	.
16cc\Jk)	.	.
(8.a/L	.	.
16b/Jk)	.	.
=80	=80	=80
(8.g/L	.	.
16b/Jk	.	.
4ee\)	4	.
4dd\	.	.
!LO:LB:g=original	!	!
=81	=81	=81
4ddd\	4	.
8ccc\L	.	.
8aa\J	.	.
8ee\L	0	.
8ff#X\J	.	.
=82	=82	=82
!LO:TX:b:i:t=con impeto	!	!
8gg\L	.	.
8g\	.	.
8a\	.	.
8b\	.	.
8cc\	.	.
8dd\J	.	.
=83	=83	=83
8.ee\L	.	ff
16ee\Jk	.	.
4ff\	.	.
4ff#X\	.	.
=84	=84	=84
4aa\	.	.
4..gg\	.	.
16ee\	.	pp
=85	=85	=85
8.ee\L	.	.
16dd\Jk	.	.
4.dd^\	.	.
8ee\	.	.
=86	=86	=86
8.dd\L	.	.
16cc\Jk	.	.
2cc^\	.	.
=87	=87	=87
8.ee\L	.	ff
16ee\Jk	.	.
4ff\	.	.
4ff#X\	.	.
=88	=88	=88
4aa\	.	.
4..gg\	.	.
16ee\	.	.
!LO:LB:g=original	!	!
=89	=89	=89
8.ee\L	.	.
16dd\Jk	.	.
4.dd\	.	.
8cc\	.	.
=90	=90	=90
8b\L	.	.
8dd\J	.	.
8aa\L	.	.
8gg^\	.	.
8ff#X^\	.	.
8ffn^\J	.	.
=91	=91	=91
8.ee\L	.	ff
16ee\Jk	.	.
4ff\	.	.
4ff#X\	.	.
=92	=92	=92
4aa\	.	.
4..gg\	.	.
16ee\	.	pp
=93	=93	=93
8.ee\L	.	.
16dd\Jk	.	.
4.dd^\	.	.
8ee\	.	.
=94	=94	=94
8.dd\L	.	.
16cc\Jk	.	.
2cc^\	.	.
=95	=95	=95
8.ee\L	.	ff
16ee\Jk	.	.
4ff\	.	.
4ff#X\	.	.
=96	=96	=96
4aa\	.	.
4..gg\	.	.
16ee\	.	pp
!LO:LB:g=original	!	!
=97	=97	=97
8.ee\L	.	.
16dd\Jk	.	.
4.dd\	.	.
8ee\	4	.
=98	=98	=98
4cc\	.	.
4cc\	.	sf
4r	.	.
=99||	=99||	=99||
8.eeu\L	.	ff
16gg\Jk	.	.
4.ccc\	4	.
8bb\	4	.
=100	=100	=100
8.bb\L	.	.
16aa\Jk	.	.
2aa\	.	.
=101	=101	=101
8.b\L	.	.
16dd\Jk	.	.
4.gg\	.	.
8ff\	.	.
=102	=102	=102
8.ff\L	.	.
16ee\Jk	.	.
2ee\	.	.
=103	=103	=103
8.eeu\L	.	.
16gg\Jk	.	.
4.ccc\	4	.
8bb\	4	.
=104	=104	=104
8.bb\L	.	.
16aa\Jk	.	.
2aa\	.	.
=105	=105	=105
8.gg\L	.	.
16aa\Jk	.	.
8.bb\L	.	.
16ccc\Jk	.	.
8.ddd\L	.	.
16eee\Jk	0	.
!LO:LB:g=original	!	!
=106	=106	=106
4ccc\	.	.
4ccc\	.	.
4r	.	.
=107	=107	=107
(8.eeu\L	.	p
16gg\Jk	.	.
*	*below	*
4.ccc\	4	.
8bb\)	.	.
=108	=108	=108
(8.bb\L	.	.
16aa\Jk)	.	.
2aa^\	.	.
=109	=109	=109
(8.b\L	.	.
16dd\Jk	.	.
4.gg^\	.	.
8ff\)	.	.
=110	=110	=110
(8.ff\L	.	.
16ee\Jk)	.	.
2ee^\	.	.
=111	=111	=111
(8.ee\L	.	.
16gg\Jk	.	.
*	*above	*
4.ccc^\)	4	.
8bb\	4	.
=112	=112	=112
(8.bb\L	.	.
16aa\Jk)	.	.
2aa\	.	.
!LO:LB:g=original	!	!
=113	=113	=113
4aa\	.	.
8gg#X\L	.	.
8aa\	.	.
8bb\	.	.
8aa\J	.	.
=114	=114	=114
4gg#X\	.	f
8.e/L	2	.
(16d#X/Jk	1	.
8.e/L)	.	.
(16d#/Jk	.	.
=115	=115	=115
8.e/L)	.	.
(16d#X/Jk	.	.
8.e/L)	.	.
(16d#/Jk	.	.
8.e/L)	.	.
(16d#/Jk	.	.
=116	=116	=116
8.e/L)	.	.
(16e/Jk	1	.
8.f/L)	.	.
(16f#X/Jk	.	.
8.g/L)	.	.
(16g#X/Jk	.	.
=117	=117	=117
8.a/L)	.	.
(<16a#X/Jk	.	.
8.b\L)	.	.
(16cc\Jk	.	.
8.cc#X\L)	.	.
16dd\Jk	.	.
!LO:LB:g=original	!	!
=118!|:	=118!|:	=118!|:
*k[f#c#g#]	*	*
(>16qqcc#/LL	.	pp
16qqdd/JJ	.	.
8.cc#\L	.	.
16b\Jk	.	.
2ee\)	4	.
=119	=119	=119
(>16qqb/LL	.	.
16qqcc#/JJ	.	.
8.b/L	.	.
16a/Jk	.	.
2ee\)	.	.
=120	=120	=120
8.f#/L	.	.
(16f#/Jk	.	.
4g#/	.	.
4e/)	.	.
=121	=121	=121
(8qb/	.	.
(8a/L)	.	.
8g#/J)	.	.
8a/L	.	.
8b/J	.	.
8cc#\L	.	.
8dd\J	.	.
=122	=122	=122
(>16qqcc#/LL	.	.
16qqdd/JJ	.	.
8.cc#\L	.	.
16b\Jk	.	.
2ee\)	4	.
=123	=123	=123
(>16qqb/LL	.	.
16qqcc#/JJ	.	.
8.b/L	.	.
16a/Jk	.	.
2ee\)	4	.
=124	=124	=124
8.f#/L	.	.
(16f#/Jk	.	.
4g#/	.	.
4e/)	.	.
!LO:LB:g=original	!	!
=125	=125	=125
(2a/	.	.
4dd\)	.	.
=126	=126	=126
(>16qqcc#/LL	.	pp
16qqdd/JJ	.	.
8.cc#\L	.	.
16b\Jk	.	.
2ee\)	4	.
=127	=127	=127
(>16qqb/LL	.	.
16qqcc#/JJ	.	.
8.b/L	.	.
16a/Jk	.	.
2ee\)	.	.
=128	=128	=128
8.f#/L	.	.
(16f#/Jk	.	.
4g#/	.	.
4e/)	.	.
=129	=129	=129
(8qb/	.	.
(8a/L)	.	.
8g#/J)	.	.
8a/L	.	.
8b/J	.	.
8cc#\L	.	.
8dd\J	.	.
=130	=130	=130
(>16qqcc#/LL	.	.
16qqdd/JJ	.	.
8.cc#\L	.	.
16b\Jk	.	.
2ee\)	4	.
=131	=131	=131
(>16qqb/LL	.	.
16qqcc#/JJ	.	.
8.b/L	.	.
16a/Jk	.	.
2ee\)	4	.
=132	=132	=132
8.f#/L	.	.
(16f#/Jk	.	.
4g#/	.	.
4e/)	.	.
!LO:LB:g=original	!	!
=133	=133	=133
(2a/	.	.
4g#/)	.	.
=134	=134	=134
!LO:TX:b:i:t=pastorale	!	!
!LO:TX:a:B:t=Più vivo.	!	!
8.cc#\L	.	ff
(16cc#\Jk	.	.
4dd#X\	.	.
8b#X/L	.	.
8g#/J)	.	.
=135	=135	=135
(16qqcc#/LL	.	.
16qqdd#X/JJ	.	.
(8cc#\L)	.	.
8b#X\	.	.
8cc#\	.	.
8dd#\	.	.
8ee\	4	.
8dd#\J)	.	.
=136	=136	=136
8.cc#\L	.	.
(16cc#\Jk	.	.
4dd#X\	.	.
8b#X/L	.	.
8g#/J)	.	.
=137	=137	=137
(16qqcc#/LL	.	.
16qqdd#X/JJ	.	.
(8cc#\L)	.	.
8b#X\	.	.
8cc#\	.	.
8dd#\J)	.	.
4ee\	.	.
=138	=138	=138
8dd#X\	.	.
8r	.	.
(4.gg#\	.	.
8ff#\)	.	.
!LO:LB:g=original	!	!
=139	=139	=139
4.ee\	.	.
(8cc#\L	.	.
8dd#X\	.	.
8ee\J)	4	.
=140	=140	=140
4dd#X\	.	.
(8b#X/L	.	.
8g#/	.	.
8a#X/	.	.
8b#/J)	.	.
=141	=141	=141
(8qdd#X/	.	.
(8cc#\L)	.	.
8b#X\	.	.
8cc#\	.	.
8dd#\J)	.	.
4ee\	.	.
=142	=142	=142
8dd#X\	.	.
8r	.	.
(4.gg#\	.	.
8ff#\)	.	.
=143	=143	=143
4.ee\	.	.
(8cc#\L	.	.
8dd#X\	.	.
8ee\J)	4	.
=144	=144	=144
4dd#X\	.	.
(8b/L	.	.
8g#/	.	.
8a#X/	.	.
8b/J)	.	.
!LO:LB:g=original	!	!
=145	=145	=145
8.cc#\L	.	.
16ee\Jk	4	.
4dd#X\	.	.
4g#/	.	.
=146	=146	=146
(8cc#\L	.	.
8ee\	.	.
8dd#X\	.	.
8ff#\J	.	.
8ee\L	.	.
8dd#\J)	.	.
=147	=147	=147
8.cc#\L	.	.
16ee\Jk	4	.
4dd#X\	.	.
4g#/	.	.
=148	=148	=148
8.cc#\L	.	p
(16ee\Jk	.	.
8dd#X\L	.	.
8ff#\	.	.
8ee\	.	.
8dd#\J)	.	.
=149	=149	=149
(8.cc#\L	.	.
16ee\Jk	4	.
4dd#X\	.	.
4g#/)	.	.
=150	=150	=150
(8cc#\L	.	.
8ee\	.	.
8dd#X\	.	.
8ff#\	.	.
8ee\	.	.
8dd#\J)	.	.
!LO:PB:g=original	!	!
=151	=151	=151
(8cc#\L	.	.
8ee\	.	.
8dd#X\	.	.
8ff#\	.	.
8ee\	.	.
8dd#\J)	.	.
=152	=152	=152
(8cc#\L	.	.
8ee\	.	.
8dd#X\	.	.
8ff#\	.	.
8ee\	.	.
8dd#\J)	.	.
=153	=153	=153
(>16qqcc#/LL	.	.
16qqdd#X/JJ	.	.
8.cc#\L	.	.
16b#X\Jk	.	.
4cc#\	.	.
4dd#X^\)	.	.
=154	=154	=154
(>16qqcc#/LL	.	.
16qqdd#X/JJ	.	.
8.cc#\L	.	.
16b#X\Jk	.	.
4cc#\	.	.
4dd#X^\)	.	.
=155	=155	=155
(>16qqcc#/LL	.	.
16qqdd#X/JJ	.	.
8.cc#\L	.	.
16b#X\Jk	.	.
4cc#\	.	.
4dd#X^\)	.	.
=156	=156	=156
(>16qqcc#/LL	.	.
16qqdd#X/JJ	.	.
8.cc#\L	.	.
16b#X\Jk	.	.
4cc#\	.	.
4ddn^\)	.	.
!LO:LB:g=original	!	!
=157:|!	=157:|!	=157:|!
(>16qqcc#/LL	.	pp
16qqdd/JJ	.	.
8.cc#\L	.	.
16b\Jk	.	.
2ee\)	4	.
=158	=158	=158
(>16qqb/LL	.	.
16qqcc#/JJ	.	.
8.b/L	.	.
16a/Jk	.	.
2ee\)	.	.
=159	=159	=159
8.f#/L	.	.
(16f#/Jk	.	.
4g#/	.	.
4e/)	.	.
=160	=160	=160
8qb/	.	.
(8a/L	.	.
8g#/J)	.	.
8a/L	.	.
8b/J	.	.
8cc#\L	.	.
8dd\J	.	.
=161	=161	=161
(>16qqcc#/LL	.	.
16qqdd/JJ	.	.
8.cc#\L	.	.
16b\Jk	.	.
2ee^\)	4	.
=162	=162	=162
(>16qqb/LL	.	.
16qqcc#/JJ	.	.
8.b/L	.	.
16a/Jk	.	.
2ee^\)	4	.
=163	=163	=163
(>16qqb/LL	.	.
16qqcc#/JJ	.	.
8.b/L	.	.
16a/Jk	.	.
2ffn^\)	.	.
=164	=164	=164
(>16qqb/LL	.	.
16qqcc#/JJ	.	.
8.b/L	.	.
16a/Jk	.	.
2ff#X^\)	.	.
=165	=165	=165
8.ggn\L	.	ff
16gg\Jk	.	.
4aa\	.	.
4gg\	.	.
=166	=166	=166
4.cccn^\	4	.
8bb\L	4	.
8aa\	.	.
8ggn\J	.	.
=167	=167	=167
8aa\L	.	.
8ggn\J	.	.
8f#X/L	.	.
8gn/	.	.
8g#X/	.	.
8a/J	.	.
=168	=168	=168
8a#X\L	.	.
8b\	.	.
8ccn\	.	.
8cc#X\	.	.
8dd\	.	.
8dd#X\J	.	.
=169||	=169||	=169||
*k[]	*	*
8.ee\L	.	ff
16ee\Jk	.	.
4ff\	.	.
4ff#X\	.	.
=170	=170	=170
4aa\	.	.
4..gg\	.	.
16ee\	.	pp
=171	=171	=171
8.ee\L	.	.
16dd\Jk	.	.
4.dd^\	.	.
8ee\	.	.
=172	=172	=172
8.dd\L	.	.
16cc\Jk	.	.
2cc^\	.	.
=173	=173	=173
8.ee\L	.	ff
16ee\Jk	.	.
4ff\	.	.
4ff#X\	.	.
=174	=174	=174
4aa\	.	.
4.gg\	.	.
8ee\	.	.
=175	=175	=175
8.ee\L	.	.
16dd\Jk	.	.
4.dd\	.	.
8cc\	.	.
=176	=176	=176
8b\L	.	.
8dd\J	.	.
16aa\	.	.
16r	.	.
8gg^\L	.	.
8ff#X^\	.	.
8ffn^\J	.	.
!LO:LB:g=original	!	!
=177	=177	=177
8.ee\L	.	ff
16ee\Jk	.	.
4ff\	.	.
4ff#X\	.	.
=178	=178	=178
4aa\	.	.
4..gg\	.	.
16ee\	.	pp
=179	=179	=179
8.ee\L	.	.
16dd\Jk	.	.
4.dd^\	.	.
8ee\	.	.
=180	=180	=180
8.dd\L	.	.
16cc\Jk	.	.
2cc^\	.	.
=181	=181	=181
8.ee\L	.	ff
16ee\Jk	.	.
4ff\	.	.
4ff#X\	.	.
=182	=182	=182
4aa\	.	.
4.gg\	.	.
8eee\	0	.
=183	=183	=183
8.eee\L	.	.
16ddd\Jk	4	.
4ddd\	.	.
4ccc\	.	.
=184	=184	=184
4.bb\	.	.
8gg\L	2	.
8ff#X\	.	.
8ee\J	.	.
!LO:LB:g=original	!	!
=185!|:	=185!|:	=185!|:
!LO:TX:a:B:t=Animato.	!	!
([4dd^\	.	f
8.dd\L]	.	.
16cc\Jk)	.	.
(8.a/L	.	.
16b/Jk)	.	.
=186	=186	=186
(8.g/L	.	.
16b/Jk	.	.
4ee\)	4	.
4dd\	.	.
=187	=187	=187
(8.dd\L	.	.
16ff#X\Jk)	.	.
4bb\	.	.
4aa\	.	.
=188	=188	=188
(8.gg\L	.	.
16bb\Jk)	.	.
4eee\	0	.
4ddd\	4	.
=189	=189	=189
([4dd\	3	.
8.dd\L]	.	.
16cc\Jk)	.	.
(8.a/L	.	.
16b/Jk)	.	.
=190	=190	=190
(8.g/L	.	.
16b/Jk)	.	.
4ee\	4	.
4dd\	.	.
=191	=191	=191
4ddd\	4	.
8ccc\L	.	.
8aa\	.	.
8ee\	0	.
8ff#X\J	.	.
=192	=192	=192
*>A1	*>A1	*>A1
4.gg\	.	.
8gg\L	.	.
8ff#X\	.	.
8ee\J	.	.
=193:|!	=193:|!	=193:|!
*>A2	*>A2	*>A2
8gg\	.	.
!LO:TX:b:i:t=con impeto	!	!
8g\L	.	.
8a\	.	.
8b\	.	.
8cc\	.	.
8dd\J	.	.
=194||	=194||	=194||
*>B	*>B	*>B
8.ee\L	.	ff
16ee\Jk	.	.
4ff\	.	.
4ff#X\	.	.
=195	=195	=195
4aa\	.	.
4..gg\	.	.
16ee\	.	pp
=196	=196	=196
8.ee\L	.	.
16dd\Jk	.	.
4.dd\	.	.
8ee\	.	.
=197	=197	=197
8.dd\L	.	.
16cc\Jk	.	.
2cc\	.	.
=198	=198	=198
8.ee\L	.	ff
16ee\Jk	.	.
4ff\	.	.
4ff#X\	.	.
=199	=199	=199
4aa\	.	.
4.gg\	.	.
8ee\	.	.
=200	=200	=200
(8.ee\L	4	.
16dd\Jk)	.	.
4.dd\	.	>
8cc\	.	]]
=201	=201	=201
(8b\L	.	<
8dd\J	.	.
8aa\)	.	.
8gg^\L	.	[
8ff#X^\	.	.
8ffn^\J	.	.
!LO:LB:g=original	!	!
=202	=202	=202
8.ee\L	.	ff
16ee\Jk	.	.
4ff\	.	.
4ff#X\	.	.
=203	=203	=203
4aa\	.	.
4.gg\	.	.
8ee\	.	pp
=204	=204	=204
8.ee\L	.	.
16dd\Jk	.	.
4.dd\	.	.
8ee\	.	.
=205	=205	=205
8.dd\L	.	.
16cc\Jk	.	.
2cc\	.	.
=206	=206	=206
8.ee\L	.	ff
16ee\Jk	.	.
4ff\	.	.
4ff#X\	.	.
=207	=207	=207
4aa\	.	.
4.gg\	.	.
8ee\	.	.
=208	=208	=208
(8.ee\L	4	.
16dd\Jk)	.	.
4dd\	.	.
4ee\	.	.
=209	=209	=209
(4.dd\	.	.
8cc\L	.	.
8a\	.	.
8b\J)	.	.
=210!|:	=210!|:	=210!|:
!LO:TX:a:B:t=Più vivo.	!	!
!LO:TX:b:i:t=con tutta la forza	!	!
8.cc\L	.	.
(16cc\Jk	.	.
4dd^\	.	.
8b/L	.	.
8g/J)	.	.
=211	=211	=211
(>16qqcc/LL	.	.
16qqdd/JJ	.	.
8cc\L	.	.
8b\J	.	.
8cc\L	.	.
8dd\	.	.
8ee\	4	.
8dd\J)	.	.
!LO:LB:g=original	!	!
=212	=212	=212
8.cc\L	.	.
(16cc\Jk	.	.
4dd^\	.	.
8b/L	.	.
8g/J)	.	.
=213	=213	=213
(16qqcc/LL	.	.
16qqdd/JJ	.	.
(8cc\L)	.	.
8b\J	.	.
8cc\L	.	.
8dd\J	.	.
4ee\)	4	.
=214	=214	=214
8dd\	.	.
8r	.	.
(4.gg^\	.	.
8ff\)	.	.
=215	=215	=215
(4.ee\	.	.
8cc\L	.	.
8dd\	.	.
8ee\J)	.	.
=216	=216	=216
4dd^\	.	.
(8cc/L	.	.
8a/	.	.
8b/	.	.
8g/J)	.	.
=217	=217	=217
*>B1	*>B1	*>B1
(2cc\	.	.
4g/)	.	.
=218:|!	=218:|!	=218:|!
*>B2	*>B2	*>B2
(16qqcc/LL	.	.
16qqdd/JJ	.	.
(8cc\L)	.	.
8b\	.	.
8cc\	.	.
8dd\J)	.	.
4ee\	.	.
=219||	=219||	=219||
*>C	*>C	*>C
8dd\	.	.
8r	.	.
(4.gg^\	.	.
8ff\)	.	.
=220	=220	=220
(4.ee\	.	.
8cc\L	.	.
8dd\	.	.
8ee\J)	.	.
=221	=221	=221
(4dd\	.	.
8cc/L	.	.
8a/	.	.
8b/	.	.
8g/J)	.	.
=222	=222	=222
(8cc\L	.	.
8ee\J	4	.
4dd\	.	.
4g/)	.	.
=223	=223	=223
(8cc\L	.	.
8ee\	.	.
8dd\	.	.
8ff\	.	.
8ee\	.	.
8dd\J)	.	.
=224	=224	=224
(8cc\L	.	.
8ee\J	4	.
4dd\	.	.
4g/)	.	.
=225	=225	=225
(8cc\L	.	>
8ee\	.	.
8dd\	.	.
8ff\	.	.
8ee\	.	.
8dd\J)	.	.
!LO:LB:g=original	!	!
=226	=226	=226
(8.cc\L	.	.
16ee\Jk	4	.
4dd\	.	.
4g/)	.	.
=227	=227	=227
(8cc\L	.	.
8ee\	.	.
8dd\	.	.
8ff\	.	.
8ee\	.	.
8dd\J)	.	.
=228	=228	=228
(8cc\L	.	.
8ee\	.	.
8dd\	.	.
8ff\	.	.
8ee\	.	.
8dd\J)	.	.
=229	=229	=229
(8cc\L	.	.
8ee\	.	.
8dd\	.	.
8ff\	.	.
8ee\	.	.
8dd\J)	.	.
=230	=230	=230
(8cc\L	.	.
8ee\	.	.
8dd\	.	.
8ff\	.	.
8ee\	.	.
8dd\J)	.	.
=231	=231	=231
(8cc\L	.	.
8ee\	.	.
8dd\	.	.
8ff\	.	.
8ee\	.	.
8dd\J)	.	.
!LO:LB:g=original	!	!
=232	=232	=232
(8cc\L	.	.
8ee\	.	.
8dd\	.	.
8ff\	.	.
8ee\	.	.
8dd\J)	.	.
=233	=233	=233
(8cc\L	.	.
8ee\	.	.
8dd\	.	.
8ff\	.	.
8ee\	.	.
8dd\J)	.	]]
=234	=234	=234
2.gg\	.	.
=235	=235	=235
!LO:TX:b:i:t=morendo	!	!
2.gg\	.	pp
=236	=236	=236
2.gg\	.	.
=237	=237	=237
2.gg\	.	.
=238	=238	=238
2.gg\	.	.
=239	=239	=239
2.r;	.	.
=240	=240	=240
!LO:TX:b:i:t=con fuoco	!	!
8.gg\L	.	ff
16gg\Jk	.	.
4aa\	1	.
4bb\	.	.
=241	=241	=241
4ccc\	.	.
4ccc\	.	.
4r;	.	.
==	==	==
*-	*-	*-
!!!RDF**kern: > = above
!!!RDF**kern: < = below
!!!ENC: Filip Voros
!!!END: 2022-07-31
!!!ENC: Jan Barakat
!!!END: 2022-08-27
!!!YEC: Copyright 2022 Narodowy Instytut Fryderyka Chopina (https://polishscores.org)
!!!YEM: Licence CC BY 4.0 (https://creativecommons.org/licenses/by/4.0)
